X:1
T:9 Lieder und Gesänge, Op.63
T:An ein Bild
T:3. An ein Bild
T:9 Lieder und Gesänge, Op.63
T:Johannes Brahms
T:Max von Schenkendorf
T:Creative Commons copyright waiver (CC0 1.0 Universal)
T:Creative Commons copyright waiver (CC0 1.0 Universal)
T:Creative Commons copyright waiver (CC0 1.0 Universal)
T:Creative Commons copyright waiver (CC0 1.0 Universal)
C:Johannes Brahms
Z:Max von Schenkendorf
Z:Creative Commons copyright waiver (CC0 1.0 Universal)
%%score 1 { 2 | ( 3 4 5 6 ) }
L:1/8
Q:1/4=92
M:4/4
K:Ab
V:1 treble nm="Singstimme\nVoice"
V:2 treble nm="Pianoforte"
V:3 bass 
V:4 bass 
V:5 bass 
V:6 bass 
V:1
"^Etwas langsam" z z2 | z4 z2!p! A2 | G3 A B2 e2 | f3 d c2 _c2 | B3 B e2 =c2 | (B3 F) G2 B2 | %6
w: |Was|schaust du mich so|freund- lich an, o|Bild aus wei- ter|Fer- * ne, und|
 d3 B (GB) (=de) | _f3 f e2 _d2 | c3!<(! c (ed) (dc)!<)! |!f!!>(! (c3 B) B2!>)!!mp! =B2 | %10
w: win- kest dem * ver- *|bann- ten Mann? Er|kä- me gar * zu *|ger- * ne, er|
 c3 e (af) (dc) | c3 B f3 e | d4 c2 z2 | z4 z2!p! A2 | G3 A B2 e2 | f3 d c2 _c2 | B3 B e2 =c2 | %17
w: kä- me gar * zu *|ger- ne, gar zu|ger- ne.|Die|gan- ze Ju- gend|tut sich auf, wenn|ich an dich ge-|
 (B3 F) G2 B2 | d3 B (GB) (=de) | _f3 f e2 _d2 | c3 c (ed) (dc) | (c3 B) B2 =B2 | (c3 e af) (dc) | %23
w: den- * ke, als|ob ich noch * den *|al- ten Lauf nach|dei- nem Hau- * se *|len- * ke, nach|dei- * * * nem, *|
 c3 B f3 e | d4 c2 z2 | z4 z2[Q:1/4=92]"^allmählich lebhafter" A2 | %26
w: dei- nem Hau- se|len- ke.|Gleich|
[Q:1/4=92] G3 A2[Q:1/4=92]"^.1" B B2 | %27
w: ei- nem,  der ins|
[Q:1/4=92]"^.2" (B2[Q:1/4=92]"^.4" A)[Q:1/4=92]"^.5" B[Q:1/4=92]"^.6" c2[Q:1/4=92]"^.8" c2[Q:1/4=92]"^.3"[Q:1/4=92]"^.7"[Q:1/4=93] | %28
w: tie\-- * fe Meer die|
[Q:1/4=93]"^.1" (c2[Q:1/4=93]"^.5" B)[Q:1/4=93]"^.7" c[Q:1/4=93]"^.9" (d[Q:1/4=94]"^.2"B)[Q:1/4=94]"^.4" (G[Q:1/4=94]"^.7"A)[Q:1/4=93]"^.3" | %29
w: Bli- * cke  lässt * ver- *|
[Q:1/4=95] (B[Q:1/4=95]"^.3"G)[Q:1/4=95]"^.6" E2[Q:1/4=96]"^.3" z[Q:1/4=96]"^.7" B[Q:1/4=97]"^.1" A[Q:1/4=97]"^.5" B[Q:1/4=96] | %30
w: sin- * ken, nicht sieht, nicht|
[Q:1/4=98] _c3[Q:1/4=99]"^.4" c[Q:1/4=99]"^.9" (c2[Q:1/4=101] B)[Q:1/4=101]"^.6" c[Q:1/4=98]"^.4"[Q:1/4=98]"^.9"[Q:1/4=100]"^.5" | %31
w: hört, ob um * ihn|
[Q:1/4=102]"^.2" d4[Q:1/4=104]"^.9" z[Q:1/4=105]"^.6" e[Q:1/4=106]"^.3" d[Q:1/4=107]"^.1" e[Q:1/4=102]"^.9"[Q:1/4=103]"^.5"[Q:1/4=104]"^.2" | %32
w: her viel tau- send|
[Q:1/4=107]"^.9" (_f[Q:1/4=108]"^.7"d)[Q:1/4=109]"^.5" (B[Q:1/4=110]"^.4"d)[Q:1/4=111]"^.2" (f[Q:1/4=112]"^.1"d)[Q:1/4=113]"^.1" B[Q:1/4=114] d | %33
w: Schä- * tze * win- * ken, viel|
[Q:1/4=115] (_f[Q:1/4=115]e)[Q:1/4=114]"^.8" (e[Q:1/4=113]"^.9"d)[Q:1/4=112] (d[Q:1/4=109]_c)[Q:1/4=104]"^.8" (B[Q:1/4=99]"^.1"A) | %34
w: tau- * send * Schä- * tze *|
[Q:1/4=92] G2 B2 z4 | z4 z2[Q:1/4=92] =c2 | B3[Q:1/4=92]"^.1" c d2[Q:1/4=92]"^.2" d2 | %37
w: win- ken.|Gleich|ei- nem, der am|
[Q:1/4=92]"^.3" (d2[Q:1/4=92]"^.5" c)[Q:1/4=92]"^.6" d[Q:1/4=92]"^.7" e3[Q:1/4=93]"^.2" e[Q:1/4=92]"^.4"[Q:1/4=92]"^.9"[Q:1/4=93] | %38
w: Fir- * ma- ment nach|
[Q:1/4=93]"^.4" (e2[Q:1/4=93]"^.8" d)[Q:1/4=94] e[Q:1/4=94]"^.2" (f[Q:1/4=94]"^.5"d)[Q:1/4=94]"^.7" (B[Q:1/4=95]c)[Q:1/4=93]"^.6" | %39
w: fer- * nem Ster- * ne *|
[Q:1/4=95]"^.3" (d[Q:1/4=95]"^.6"B)[Q:1/4=96] (G[Q:1/4=96]"^.3"A)[Q:1/4=96]"^.7" z[Q:1/4=97]"^.1" B[Q:1/4=97]"^.5" A[Q:1/4=97]"^.9" B | %40
w: bli- * cket, * nur die- sen|
[Q:1/4=98]"^.4" _c3[Q:1/4=99]"^.8" c[Q:1/4=100]"^.3" (c2[Q:1/4=101]"^.4" B)[Q:1/4=102] c[Q:1/4=98]"^.8"[Q:1/4=99]"^.3"[Q:1/4=100]"^.8" | %41
w: kennt, nur die- * sen|
[Q:1/4=102]"^.6" d4[Q:1/4=105]"^.2" z[Q:1/4=105]"^.9" e[Q:1/4=106]"^.6" d[Q:1/4=107]"^.3" e[Q:1/4=103]"^.2"[Q:1/4=103]"^.8"[Q:1/4=104]"^.5" | %42
w: nennt und sich an|
[Q:1/4=108]"^.1" (_f[Q:1/4=108]"^.9"d)[Q:1/4=109]"^.7" (B[Q:1/4=110]"^.5"d)[Q:1/4=111]"^.4" (f[Q:1/4=112]"^.2"d)[Q:1/4=113]"^.1" B[Q:1/4=114]"^.1" d | %43
w: ihm * ent- * zü- * cket, an|
[Q:1/4=115] (_f[Q:1/4=114]"^.8"e)[Q:1/4=114]"^.2" (e[Q:1/4=112]"^.8"d)[Q:1/4=110]"^.7" (d[Q:1/4=107]"^.6"_c)[Q:1/4=103]"^.5" (B[Q:1/4=98]"^.3"A) | %44
w: ihm, * an * ihm * ent- *|
[Q:1/4=92] G2 B2 z4 | z8 | z4 z2 A2 | G3 A B2 e2 | f3 d c2 _c2 | B3 B e2 =c2 | (B3 =D) E2 B2 | %51
w: zü- cket:||ist|all mein Seh- nen,|all mein Mut in|dir, o Bild, ge-|grün- * det, und|
 d3 B (GB) (=de) | _f3 _d B2 d2 | c3 c (ed) (dc) |!<(! (c3 B) B2 =B2 | (c3 e af) (d!<)!!f!c) | %56
w: im- mer noch * von *|glei- cher Glut, von|glei- cher Lust * ent- *|zün- * det, von|glei- * * * cher, *|
!>(! c3 B f3 e!>)! |!p! (e3 G) A2 z2 | !fermata!z8 |] %59
w: glei- cher Lust ent-|zün- * det.||
V:2
 z z2 | z4 A2- ([Aa]2 | [Gg]3 [Aa] [Bb]2 e2) | z (.[Ad] z .[EGB] z .[EAe] z .[EA_c]) | %4
 z [EBe] z [EB] z [B,EG] z [=CE] | z [B,EG] z [A,=DF] z [G,E] z [EG] | %6
 z ([A_d-a][Gdg][Adg] [B-d-b]2 [Bde]2) | z ([Ad-a][Gdg][Adg] [B-d-b]2 [Bde]2) | %8
 z ([CA][EG][CA]) z ([A,A][DG][A,A]) | z2 (.[A,FB]2 z2 .[G,_DE]2) | (A3 _G [DF]3 [CE]) | %11
 (=D4!>(! _D4 |[I:staff +1] ([E,-G,B,]4!>)!!mp! [E,A,C]2))[I:staff -1] z2 | %13
[I:staff +1] E,A,CE[I:staff -1] A2- ([Aa]2 | [Gg]3 [FAa] [Bb]2 e2) | %15
 z (.[Ad] z .[EGB] z .[EAe] z .[EA_c]) | z [EBe] z [EB] z [B,EG] z [=CE] | %17
 z [B,EG] z [A,=DF] z [G,E] z [EG] | z ([A_d-a][Gdg][Adg] [B-d-b]2 [Bde]2) | %19
 z ([Ad-a][Gdg][Adg] [B-d-b]2 [Bde]2) | z ([CA][EG][CA]) z ([A,A][DG][A,A]) | %21
 z2 (.[A,FB]2 z2 .[G,_DE]2) | (A3 _G [DF]3 [CE]) | (=D4!>(! _D4 | %24
[I:staff +1] ([E,-G,B,]4!>)!!pp! [E,A,C]2))[I:staff -1] z2 | z4 z2 ([A,E]2 | %26
 [G,B,E]3 [A,CE] [B,DE]2 [B,DE]2 | [B,DE]2 [A,CE][B,DE] [CE]2 [CE]2) | %28
 ([CE]2 [B,DE][CE] z [DF]2 [B,D]- | [B,D] [B,D]2 [G,B,]) z ([B,E-][A,E][B,E]) | %30
 z ([_CE]2 [CE]2 [CE-][B,E][CE]) | z ([D_G]2 [DG] z [EG-][DG][EG]) | %32
 z ([_F_G]2 [FB]2 [FB]2 [FBd]) | z [EA_c] z [_FA] z [_CFA] z [A,=D=F] | %34
 z!<(! (.[G,EG] z .[B,EB] z .[E=d] z!<)! .[Ee]) | %35
!>(! z (.[E_de] z .[EBe] z .[EAe]!>)!!p! z .[E=ce]) | z ([EBe]2 [Ece] z [Ede]2 [Ede]- | %37
 [Ede][Ede][Ece][Ede]) z ([Ee]2 [Ee]- | [Ee][Ee][Ed][Ee] z [Ef]2 [Ee]- | %39
 [Ee] [Ede]2 [EAe]) z ([EBe]-[EBe][EBe] | z [E_ce]2 [Ece]2 ([E-ce-][EBe])[Ece]) | %41
 z ([_Gd_g]2 [Gdg]2 ([G-eg-][Gdg])[Geg]) | z ([_G_f_g]2 [_FBf]2 [FBf]2 [FBd]) | %43
 z [EA_c] z [_FA] z [_CFA] z [A,=D=F] | z [G,E] z [G,EG] z [EB] z [GB] | %45
 z (.[AB_d] z .[A=ce] z .[Ad_f]) z [_ce] | (=d3 e f2 ([Ba]2) | g3 a b2 e2) | %48
 z (.[Ae] z .[EGB] z .[EAe] z .[EA_c]) | z [EBe] z [EB] z [B,EG] z [=CE] | %50
 z [B,EG] z [A,=DF] z [G,E] z [EG] | z ([A_d-a][Gdg][Adg] [B-d-b]2 [Bde]2) | %52
 z ([A_d-a][Gdg][Adg] [B-d-b]2 [Bde]2) | z ([CA][EG][CA]) z ([A,A][DG][A,A]) | %54
 z2 (.[A,FB]2 z2 .[G,_DE]2) | (A3 _G [DF]3 [CE]) | =D4 _D4 | D4 C4 | !fermata!C8 |] %59
V:3
!p! E,,A,,C, | E,A,CE z2 z[I:staff -1] (.C | %2
[I:staff +1] z[I:staff -1] .E[I:staff +1] z[I:staff -1] .[=DF][I:staff +1] z[I:staff -1] .[_DG][I:staff +1] z[I:staff -1] .[CA] | %3
[I:staff +1] z[I:staff -1] .B,)[I:staff +1] z2 ([A,,,A,,]4 | [G,,,G,,]6 [A,,,A,,]2 | %5
 [B,,,B,,]4 [E,,,E,,]4) | z (_F,!<(!A,D)!<)!!>(! (E,G,!>)!B,D) | %7
 (D,_F,!<(!A,B,,)!<)!!>(! (G,,B,,!>)!D,E,) |!mf! (A,,3 _G,,!<(! F,,3 E,,)!<)! | %9
!>(! =D,,4!>)! E,,4 | z!<(! ([A,,,A,,]G,,,[A,,,A,,]) z ([A,,,A,,]G,,,[A,,,A,,])!<)! | %11
!f! z2 (.[B,,,B,,]2 z2 .[E,,,E,,]2) | z2 [A,,,A,,]2- [A,,,A,,]E,,A,,C, | %13
 x4!p! z[I:staff -1] (CF=D) | %14
[I:staff +1] z[I:staff -1] (.E[I:staff +1] z[I:staff -1] .=D[I:staff +1] z[I:staff -1] .[_DG][I:staff +1] z[I:staff -1] .[CA] | %15
[I:staff +1] z[I:staff -1] .B,)[I:staff +1] z2 ([A,,,A,,]4 | [G,,,G,,]6 [A,,,A,,]2 | %17
 [B,,,B,,]4 [E,,,E,,]4) | z (_F,!<(!A,D)!<)!!>(! (E,G,!>)!B,D) | %19
 (D,_F,!<(!A,B,,)!<)!!>(! (G,,B,,!>)!D,E,) | (A,,3 _G,,!<(! F,,3 E,,)!<)! |!>(! =D,,4!>)! E,,4 | %22
 z ([A,,,A,,]G,,,!<(![A,,,A,,]) z ([A,,,A,,]G,,,[A,,,A,,])!<)! | z2 (.[B,,,B,,]2 z2 .[E,,,E,,]2) | %24
 z2 [A,,,A,,]2- [A,,,A,,](E,,A,,C, | E, E,2 E,2!p! E,2 E,) | (E,, E,2 E,2 E,2 E,) | %27
 (E,, E,2 E,2!<(! E,2 E,) | (E,, E,2!<)! E,2!>(! E,2 E,) | %29
 E,, E,2!>)! E,!p!"^cresc. poco a poco" E,2 E,2 | E,2 E,2 E,2 E,2 | _G,2 G,2 G,2 G,2 | %32
 _G,2 G,2 =G,2 G,2 |!f! ([A,,A,]2!>(! [D,,D,]2 [_G,,_G,]2 [B,,,B,,]2)!>)! | %34
 ([E,,E,]2 [G,,E,]2 [B,,E,]2 [_D,E,]2 | [B,,E,]2 [G,,E,]2 [E,,E,]2 [A,,E,]2) | %36
 ([G,,E,]3 [A,,E,] [B,,E,]2 [E,,E,]2) | E,3 E,!<(! E,2 E,2 | E,3!<)! E, E,2 E,2 | %39
 E,2"^cresc." E,2 E,3 E, | E,2 E,2 E,3 E, | _G,2 G,2 G,3 G, | _G,2 G,2 =G,2 G,2 | %43
!f!!>(! ([A,,A,]2 [D,,D,]2 [_F,,_F,]2 [B,,,B,,]2)!>)! | %44
!mp! (E,,2 G,,B,,!<(! E,G,B,)[I:staff -1](E!<)! | _F3 E D2 A2) | %46
[I:staff +1] z!>(![I:staff -1] (.[FAB][I:staff +1] z[I:staff -1] .[EAB][I:staff +1] z[I:staff -1] .[=DAB][I:staff +1] z!>)![I:staff -1] .[B,D]) | %47
[I:staff +1] z[I:staff -1] (.E[I:staff +1] z[I:staff -1] .[=DF][I:staff +1] z[I:staff -1] .[_DG][I:staff +1] z[I:staff -1] .[CA] | %48
[I:staff +1] z[I:staff -1] .B,)[I:staff +1] z2!p! ([A,,,A,,]4 | [G,,,G,,]6 [A,,,A,,]2 | %50
 [B,,,B,,]4 [E,,,E,,]4) | z (_F,!<(!A,D)!<)!!>(! (E,G,!>)!B,D) | %52
 (D,_F,!<(!A,B,,)!<)!!>(! (G,,B,,!>)!D,E,) | (A,,3 _G,,!<(! F,,3 E,,)!<)! |!>(! =D,,4!>)! E,,4 | %55
 z!<(! ([A,,,A,,]G,,,[A,,,A,,]) z ([A,,,A,,]G,,,[A,,,A,,])!<)! | %56
!>(! z2 (.[B,,,B,,]2 z2 .[E,,,E,,]2)!>)! |!p! z2 [A,,,A,,]4 [A,,,A,,]2 | %58
!p! !arpeggio!!fermata![A,,,E,,A,,C,E,A,]8 |] %59
V:4
 x3 | x8 | x8 | x8 | x8 | x8 | x _F,3 E,4 | D,3 B,, G,,4 | x8 | x8 | x8 | x8 | x8 | x8 | x8 | x8 | %16
 x8 | x8 | x _F,3 E,4 | D,3 B,, G,,4 | x8 | x8 | x8 | x8 | x8 | z4 z2 C,,2 | E,,8 | E,,8 | E,,8 | %29
 x4 (G,,2 F,,G,, | A,,2 E,,2) (A,,2 G,,A,, | B,,2 _G,,2) (_C,2 B,,C, | D,2 _G,,2) (D,2 =G,,2) | %33
 x8 | x8 | x8 | x8 | (B,,2 A,,B,, C,2 E,,2) | (C,2 B,,C, D,2 G,,2 | B,,2 E,,F,,) (G,,2 F,,G,, | %40
 A,,2 E,,2) (A,,2 G,,A,, | B,,2 _G,,2) (_C,2 B,,C, | D,2 _G,,2) (D,2 =G,,2) | x8 | x8 | x8 | x8 | %47
 x8 | x8 | x8 | x8 | x _F,3 E,4 | D,3 B,, G,,4 | x8 | x8 | x8 | x8 | x8 | x8 |] %59
V:5
 x3 | x8 | x8 | x8 | x8 | x8 | x8 | x8 | x8 | x8 |[I:staff -1] [A,C]4 A,4 | %11
[I:staff +1] [F,A,]4 G,4 | x8 | x8 | x8 | x8 | x8 | x8 | x8 | x8 | x8 | x8 | %22
[I:staff -1] [A,C]4 A,4 |[I:staff +1] [F,A,]4 G,4 | x8 | x8 | x8 | x8 | x8 | x8 | x8 | x8 | x8 | %33
 x8 | x8 | x8 | x8 | x8 | x8 | x8 | x8 | x8 | x8 | x8 | x8 | x8 | x8 | x8 | x8 | x8 | x8 | x8 | %52
 x8 | x8 | x8 |[I:staff -1] [A,C]4 A,4 |[I:staff +1] [F,A,]4 G,4 | [E,G,]4 [E,A,]4 | x8 |] %59
V:6
 x3 | x8 | x8 | x8 | x8 | x8 | x8 | x8 | x8 | x8 | x8 | x8 | x8 | x8 | x8 | x8 | x8 | x8 | x8 | %19
 x8 | x8 | x8 | x8 | x8 | x8 | x8 | x8 | x8 | x8 | E,,8 | x8 | x8 | x8 | x8 | x8 | x8 | x8 | x8 | %38
 x8 | x8 | x8 | x8 | x8 | x8 | x8 | x8 | x8 | x8 | x8 | x8 | x8 | x8 | x8 | x8 | x8 | x8 | x8 | %57
 x8 | x8 |] %59

